icons/System/share-circle-fill.svg

<svg viewBox="0 0 24 24" xmlns="http://www.w3.org/2000/svg"><path d="M11 2.04938V4.06189C7.05369 4.55399 4 7.92038 4 12C4 16.4183 7.58172 20 12 20C16.0796 20 19.446 16.9463 19.9381 13H21.9506C21.4489 18.0533 17.1853 22 12 22C6.47715 22 2 17.5228 2 12C2 6.81465 5.94668 2.5511 11 2.04938ZM18.7071 6.70711L12 13.4142L10.5858 12L17.2929 5.29289L14 2H22V10L18.7071 6.70711Z"/></svg>

<svg xmlns="http://www.w3.org/2000/svg" viewBox="0 0 24 24">
    <g>
        <path fill="none" d="M0 0h24v24H0z"/>
        <path d="M11 2.05v2.012A8.001 8.001 0 0 0 12 20a8.001 8.001 0 0 0 7.938-7h2.013c-.502 5.053-4.766 9-9.951 9-5.523 0-10-4.477-10-10 0-5.185 3.947-9.449 9-9.95zm7.707 4.657L12 13.414 10.586 12l6.707-6.707L14 2h8v8l-3.293-3.293z"/>
    </g>
</svg>
